svgs/sharp-light/heading.svg

<svg xmlns="http://www.w3.org/2000/svg" viewBox="0 0 448 512"><!--! Font Awesome Pro 6.6.0 by @fontawesome - https://fontawesome.com License - https://fontawesome.com/license (Commercial License) Copyright 2024 Fonticons, Inc. --><path d="M0 32l16 0 64 0 64 0 16 0 0 32-16 0L96 64l0 160 256 0 0-160-48 0-16 0 0-32 16 0 64 0 64 0 16 0 0 32-16 0-48 0 0 176 0 208 48 0 16 0 0 32-16 0-128 0-16 0 0-32 16 0 48 0 0-192L96 256l0 192 48 0 16 0 0 32-16 0L16 480 0 480l0-32 16 0 48 0 0-208L64 64 16 64 0 64 0 32z"/></svg>

<svg xmlns="http://www.w3.org/2000/svg" viewBox="0 0 448 512"><!--! Font Awesome Pro 6.4.0 by @fontawesome - https://fontawesome.com License - https://fontawesome.com/license (Commercial License) Copyright 2023 Fonticons, Inc. --><path d="M0 32H16 80h64 16V64H144 96V224H352V64H304 288V32h16 64 64 16V64H432 384V240 448h48 16v32H432 304 288V448h16 48V256H96V448h48 16v32H144 16 0V448H16 64V240 64H16 0V32z"/></svg>
